X:0777
T:Miss Margt. MacGregor's Favourite.
M:9/8
L:1/8
Q:3/8=112
N:bar 10 is printed |(f/g/a).f bge f/e/|
I: :| ||
Z:Jack Campin * www.campin.me.uk * 2009
K:D
G|(F/G/A).A d>ed     c2A|(B/c/d).B AFE E2A   |F/G/AA ded      c2A|(B/c/d).B AFD D2:|
f| d2d     (f/g/a).f afd|(f/g/a).f bge e2f   |d2d   (f/g/a).f afd|(f/g/a).f afd d2f|
   d2d     (f/g/a).f afd|(f/g/a).f bge e2f/e/|dAd    fed      cBA|(B/c/d).B AFD D2|]

